!!!!SEGMENT: pl-sa--l-1643--011_anonim--alma-redemptoris-mater.krn
!!!cenid: 16xx:1366
!!!COM: Anonim
!!!COM-rismid: pe30004985
!!!CDT:
!!!CNT:
!!!OTL: Alma redemptoris mater
!!!PDT:
!!!AGN: Sacred
!!!SMS-siglum: PL-SA
!!!SMS-shelfmark: L 1643
!!!SMS-shelfwork: 011 W
!!!SMS-variant:
!!!SMS-altvar:
!!!NIFC-rismid: 1001063180
!!!URL-scan: http://repozytorium.nifc.pl/skany/pl-sa-nut--l1643
!!!ONB-nifc: UWAGA: 8 ksiąg. Primi chori: 1mus Cantus (s. 34-35), C 2dus (s. 32-33), C 3tius (s. 32-33), Bassus (s. 30-31); Secondi chori: Primus Cantus (s. 32-33), C 2dus (s. 32-33), Altus (s. 32-33), Bassus (s. 32-33). UWAGA: metrum 2/2 i 3/2
**kern	**text	**kern	**text	**kern	**text	**kern	**text	**kern	**text	**kern	**text	**kern	**text	**kern	**text
*part8	*part8	*part7	*part7	*part6	*part6	*part5	*part5	*part4	*part4	*part3	*part3	*part2	*part2	*part1	*part1
*staff8	*staff8	*staff7	*staff7	*staff6	*staff6	*staff5	*staff5	*staff4	*staff4	*staff3	*staff3	*staff2	*staff2	*staff1	*staff1
*I"Baſsus 2di Chori	*	*I"Altus secundi Chori.	*	*I"Cantus 2dus Secundi Chori.	*	*I"Primus Cantus 2di Chori	*	*I"Bassus Primi Chori.	*	*I"Cantus 3tius Primi Chori	*	*I"Cantus 2dus Primi Chori.	*	*I"1m(us) Cantus Primi Chori	*
*I'Coro 2 B	*	*I'Coro 2 A	*	*I'Coro 2 C 2	*	*I'Coro 2 C 1	*	*I'Coro 1 B	*	*I'Coro 1 C 3	*	*I'Coro 2 C 2	*	*I'Coro 1 C 1	*
*clefC3	*	*clefC2	*	*clefC1	*	*clefG2	*	*clefG2	*	*clefC2	*	*clefC1	*	*clefC3	*
*k[b-]	*	*k[b-]	*	*k[b-]	*	*k[b-]	*	*k[b-]	*	*k[b-]	*	*k[b-]	*	*k[b-]	*
*M2/1	*	*M2/1	*	*M2/1	*	*M2/1	*	*M2/1	*	*M2/1	*	*M2/1	*	*M2/1	*
*met(C|)	*	*met(C|)	*	*met(C|)	*	*met(C|)	*	*met(C|)	*	*met(C|)	*	*met(C|)	*	*met(C|)	*
=1-	=1-	=1-	=1-	=1-	=1-	=1-	=1-	=1-	=1-	=1-	=1-	=1-	=1-	=1-	=1-
!	!	!LO:TX:t=P:problem:znaki B- b-	!	!	!	!	!	!	!	!LO:TX:t=P:problem:znaki B- b-	!	!	!	!	!
00r	.	00r	.	00r	.	00r	.	1cc	Al-	1.f	Al-	1.a	Al-	1.f	Al-
.	.	.	.	.	.	.	.	2a/	-ma	.	.	.	.	.	.
!	!	!	!	!	!	!	!	!	!	!	!	!LO:TX:t=P:problem:oddech jako rozdzielacz słów:global	!	!LO:TX:t=P:problem:oddech jako rozdzielacz słów:global	!
.	.	.	.	.	.	.	.	4a/	re-	2f\	-ma	2cc,<\	-ma	2F,</	-ma
.	.	.	.	.	.	.	.	4b-/	-dem-	.	.	.	.	.	.
=2-	=2-	=2-	=2-	=2-	=2-	=2-	=2-	=2-	=2-	=2-	=2-	=2-	=2-	=2-	=2-
.	.	.	.	.	.	.	.	1.cc	-pto-	4f\	re-	4cc\	re-	4A/	re-
.	.	.	.	.	.	.	.	.	.	4f\	-dem-	4b-\	-dem-	4B-/	-dem-
.	.	.	.	.	.	.	.	.	.	1e\	-pto-	1g\	-pto-	1c\	-pto-
!	!	!	!	!	!	!	!	!LO:N:acc=#	!	!	!	!	!	!	!
.	.	.	.	.	.	.	.	2bn/	-ris	2f\	-ris	2f/	-ris	2d\	-ris
=3-	=3-	=3-	=3-	=3-	=3-	=3-	=3-	=3-	=3-	=3-	=3-	=3-	=3-	=3-	=3-
1r	.	1r	.	1r	.	1r	.	1cc	Ma-	(2f\	ma-	1g	ma-	1c	ma-
.	.	.	.	.	.	.	.	.	.	2e\)	.	.	.	.	.
1f	Al-	1a	Al-	1cc	Al-	1ff	Al-	1cc	-ter	1f	-ter	1a	-ter	1F	-ter
=4-	=4-	=4-	=4-	=4-	=4-	=4-	=4-	=4-	=4-	=4-	=4-	=4-	=4-	=4-	=4-
2c/	-ma	2g\	-ma	2cc\	-ma	2ee\	-ma	00r	.	00r	.	00r	.	00r	.
4d\	re	4f\	re	4b-\	re	4ff\	re-	.	.	.	.	.	.	.	.
4e\	-dem-	4g\	-dem-	4b-\	-dem-	4ee\	-dem-	.	.	.	.	.	.	.	.
1.f	-pto-	1.a	-pto-	1.a	-pto-	1.cc	-pto-	.	.	.	.	.	.	.	.
=5-	=5-	=5-	=5-	=5-	=5-	=5-	=5-	=5-	=5-	=5-	=5-	=5-	=5-	=5-	=5-
2B-/	-ris	2f\	-ris	2b-\	-ris	2dd\	-ris	.	.	.	.	.	.	.	.
1c	ma-	(2f\	ma-	1g	ma-	1cc	ma-	.	.	.	.	.	.	.	.
.	.	2e\)	.	.	.	.	.	.	.	.	.	.	.	.	.
=6-	=6-	=6-	=6-	=6-	=6-	=6-	=6-	=6-	=6-	=6-	=6-	=6-	=6-	=6-	=6-
1F	-ter	1f	-ter	1a	-ter	1cc	-ter	4cc\	quae	2f\	quae	2a\	quae	2f\	quae
.	.	.	.	.	.	.	.	4cc\	per-	.	.	.	.	.	.
.	.	.	.	.	.	.	.	1ff\	-ui-	2a\	per-	2cc\	per-	2f\	per-
0r	.	0r	.	0r	.	0r	.	.	.	2b-\	-ui-	2dd\	-vi-	2d\	-vi-
.	.	.	.	.	.	.	.	2b-y/	-a	2g\	-a	2b-\	-a	2e-X\	-a
=7-	=7-	=7-	=7-	=7-	=7-	=7-	=7-	=7-	=7-	=7-	=7-	=7-	=7-	=7-	=7-
.	.	.	.	.	.	.	.	1ee-X	cae-	1e-X	cae-	(2b-\	cae-	1c	cae-
.	.	.	.	.	.	.	.	.	.	.	.	2a\)	.	.	.
!	!	!	!	!	!	!	!	!LO:SIC:v:t=custos cc	!	!	!	!	!	!	!
2r	.	2r	.	2r	.	2r	.	1dd	-li	1f	-li	1b-	-li	1B-	-li
2B-/	quae	2f\	quae	2b-\	quae	2dd\	quae	.	.	.	.	.	.	.	.
!	!	!	!	!	!	!	!	!LO:LB:g=original	!	!	!	!	!	!	!
=8-	=8-	=8-	=8-	=8-	=8-	=8-	=8-	=8-	=8-	=8-	=8-	=8-	=8-	=8-	=8-
1B-	per-	1f	per-	1b-	per-	1dd	per-	0r	.	0r	.	0r	.	0r	.
2A/	-ui-	2f\	-ui-	2cc\	-ui-	2cc\	-ui-	.	.	.	.	.	.	.	.
2B-/	-a	2f\	-a	2b-\	-a	2dd\	-a	.	.	.	.	.	.	.	.
=9-	=9-	=9-	=9-	=9-	=9-	=9-	=9-	=9-	=9-	=9-	=9-	=9-	=9-	=9-	=9-
!	!	!	!	!	!	!	!	!	!	!	!	!LO:SIC:v:t=custos a	!	!LO:SIC:v:t=custos f	!
1G	cae-	(2f\	cae-	(2b-\	cae-	1b-	cae-	1r	.	1r	.	1r	.	1r	.
.	.	2e\)	.	2g\)	.	.	.	.	.	.	.	.	.	.	.
!	!	!	!	!	!	!LO:SIC:v:t=custos cc	!	!	!	!	!	!LO:LB:g=original	!	!LO:LB:g=original	!
1F	-li	1f	-li	1a	-li	1a	-li	2.cc\	por-	2.f\	por-	2.a\	por-	2.f\	por-
!	!	!	!	!	!	!	!	!	!	!LO:SIC:v:t=custos f	!	!	!	!	!
.	.	.	.	.	.	.	.	4b-/	-ta	4g\	-ta	4g/	-ta	4f\	-ta
!	!	!	!	!	!	!LO:LB:g=original	!	!	!	!LO:LB:g=original	!	!	!	!	!
=10-	=10-	=10-	=10-	=10-	=10-	=10-	=10-	=10-	=10-	=10-	=10-	=10-	=10-	=10-	=10-
0r	.	0r	.	0r	.	0r	.	1a	ma-	1a	ma-	1f	ma-	1f	ma-
.	.	.	.	.	.	.	.	2b-/	-nes	2g\	-nes	2g/	-nes	2B-/	-nes
.	.	.	.	.	.	.	.	2b-/	et	2g\	et	2g/	et	2B-/	et
=11-	=11-	=11-	=11-	=11-	=11-	=11-	=11-	=11-	=11-	=11-	=11-	=11-	=11-	=11-	=11-
!LO:SIC:v:t=custos F	!	!LO:SIC:v:t=custos f	!	!	!	!	!	!	!	!	!	!	!	!	!
1r	.	1r	.	1r	.	1r	.	2.cc\	Stel-	2.f\	stel-	2.a\	stel-	2.f\	stel-
.	.	.	.	.	.	.	.	4b-\	-la	4g\	-la	4g/	-la	4f\	-la
!LO:LB:g=original	!	!LO:LB:g=original	!	!	!	!	!	!	!	!	!	!	!	!	!
2.F/	por-	2.f\	por-	2.a\	por-	2.cc\	por-	2a/	ma-	2a\	ma-	2f/	ma-	2f\	ma-
.	.	.	.	.	.	.	.	2b-/	-ris	2g\	-ris	2g/	-ris	2B-/	-ris
4F/	-ta	4g\	-ta	4g/	-ta	4b-/	-ta	.	.	.	.	.	.	.	.
=12-	=12-	=12-	=12-	=12-	=12-	=12-	=12-	=12-	=12-	=12-	=12-	=12-	=12-	=12-	=12-
!	!	!	!	!LO:SIC:v:t=custos g	!	!	!	!	!	!	!	!	!	!	!
1F	me-	1a	ma-	1f	ma-	1a	ma-	0r	.	0r	.	0r	.	0r	.
!	!	!LO:TX:t=P:problem:oddech jako rozdzielacz słów:global	!	!LO:LB:g=original	!	!	!	!	!	!	!	!	!	!	!
2B-/	-nes	2g,<\	-nes	2g/	-nes	2b-/	-nes	.	.	.	.	.	.	.	.
2B-/	et	2g\	et	2g/	et	2b-/	et	.	.	.	.	.	.	.	.
=13-	=13-	=13-	=13-	=13-	=13-	=13-	=13-	=13-	=13-	=13-	=13-	=13-	=13-	=13-	=13-
2.F/	stel-	2.f\	stel-	2.a\	stel-	2.cc\	stel-	1r	.	1r	.	1r	.	1r	.
4F/	-la	4g\	-la	4g/	-la	4b-/	-la	.	.	.	.	.	.	.	.
2F/	ma-	2a\	ma-	2f/	ma-	2a/	ma-	2.ff\	por-	2.f\	por-	2.cc\	por-	2.f\	por-
2B-/	-ris	2g\	-ris	2g/	-ris	2b-/	-ris	.	.	.	.	.	.	.	.
.	.	.	.	.	.	.	.	4eeny\	-ta-	4f\	-ta-	4cc\	-ta-	4B-/	-ta-
=14-	=14-	=14-	=14-	=14-	=14-	=14-	=14-	=14-	=14-	=14-	=14-	=14-	=14-	=14-	=14-
0r	.	0r	.	0r	.	0r	.	1dd	-ma-	1b-	-ma-	1b-	-ma-	1d	-ma-
.	.	.	.	.	.	.	.	2ee\	-nes	2a\	-nes	2cc\	-nes	2c/	-nes
.	.	.	.	.	.	.	.	2ee\	et	2a\	et	2cc\	et	2c/	et
=15-	=15-	=15-	=15-	=15-	=15-	=15-	=15-	=15-	=15-	=15-	=15-	=15-	=15-	=15-	=15-
1r	.	1r	.	1r	.	1r	.	2.ff\	stel-	2.f\	stel-	2.dd\	stel-	2.B-/	stel-
.	.	.	.	.	.	.	.	4ee\	-la	4b-\	-la	4cc\	-la	4B-/	-la
2.B-/	por-	2.b-\	por-	2.dd\	por-	2.ff\	por-	2dd\	ma-	2b-\	ma-	2b-\	ma-	2B-/	ma-
.	.	.	.	.	.	.	.	2ee\	-ris	2g\	-ris	2cc\	-ris	2B-/	-ris
4B-/	-ta	4b-\	-ta	4cc\	-ta	4ee\	-ta	.	.	.	.	.	.	.	.
=16-	=16-	=16-	=16-	=16-	=16-	=16-	=16-	=16-	=16-	=16-	=16-	=16-	=16-	=16-	=16-
1d	ma-	1f	ma-	1b-	ma-	1dd	ma-	00r	.	00r	.	00r	.	00r	.
2c/	-nes	2g\	-nes	2cc\	-nes	2ee\	-nes	.	.	.	.	.	.	.	.
2c/	et	2a\	et	2cc\	et	2ee\	et	.	.	.	.	.	.	.	.
=17-	=17-	=17-	=17-	=17-	=17-	=17-	=17-	=17-	=17-	=17-	=17-	=17-	=17-	=17-	=17-
2.B-/	stel-	2.f\	stel-	2.dd\	stel-	2.ff\	stel-	.	.	.	.	.	.	.	.
4B-/	-la	4f\	-la	4cc\	-la	4ee\	-la	.	.	.	.	.	.	.	.
2d\	ma-	2f\	ma-	2b-\	ma-	2dd\	ma-	.	.	.	.	.	.	.	.
!LO:TX:t=P:problem:oddech jako rozdzielacz słów:global	!	!	!	!	!	!	!	!	!	!	!	!	!	!	!
4c,</	-ris	4a,<\	-ris	4cc\	-ris	4ee\	-ris	.	.	.	.	.	.	.	.
4c/	suc-	4a\	suc-	4cc\	suc-	4ee\	suc-	.	.	.	.	.	.	.	.
=18-	=18-	=18-	=18-	=18-	=18-	=18-	=18-	=18-	=18-	=18-	=18-	=18-	=18-	=18-	=18-
!	!	!	!	!	!	!LO:SIC:v:t=custos dd	!	!	!	!	!	!	!	!	!
2B-/	-cur-	2b-\	-cur-	2dd\	-cur-	2ff\	-cur-	0r	.	0r	.	0r	.	0r	.
!LO:SIC:v:t=custos b	!	!	!	!LO:TX:t=P:problem:oddech jako rozdzielacz słów:global	!	!LO:LB:g=original	!	!	!	!	!	!	!	!	!
4B-/	-re	4f\	-re	4b-,<\	-re	4dd\	-re	.	.	.	.	.	.	.	.
!LO:LB:g=original	!	!	!	!	!	!	!	!	!	!	!	!	!	!	!
4B-/	ca-	4f\	ca-	4b-\	ca-	4dd\	ca-	.	.	.	.	.	.	.	.
!	!	!LO:SIC:v:t=custos f	!	!	!	!	!	!	!	!	!	!	!	!	!
1f	-den-	1f	-den-	(2b-\	-den-	1cc	-den-	.	.	.	.	.	.	.	.
.	.	.	.	2a\)	.	.	.	.	.	.	.	.	.	.	.
!	!	!LO:LB:g=original	!	!	!	!	!	!	!	!	!	!	!	!	!
=19-	=19-	=19-	=19-	=19-	=19-	=19-	=19-	=19-	=19-	=19-	=19-	=19-	=19-	=19-	=19-
1B-	-ti	1f	-ti	1b-	-ti	1dd	-ti	2r	.	2r	.	2r	.	2r	.
!	!	!	!	!	!	!	!	!LO:SIC:v:t=custos dd	!	!	!	!LO:SIC:v:t=custos b	!	!	!
.	.	.	.	.	.	.	.	2dd\	suc-	2f\	suc-	2b-\	suc-	2B-/	suc-
!	!	!	!	!	!	!	!	!LO:LB:g=original	!	!	!	!LO:LB:g=original	!	!	!
1r	.	1r	.	1r	.	1r	.	2dd\	-cur-	2f\	-cur-	2b-\	-cur-	2B-/	-cur-
.	.	.	.	.	.	.	.	4b-/	-re	4g\	-re	4b-\	-re	4G/	-re
!	!	!	!	!	!	!	!	!	!	!LO:SIC:v:t=custos g	!	!	!	!LO:SIC:v:t=custos d	!
.	.	.	.	.	.	.	.	4b-/	ca-	4g\	ca-	4g/	ca-	4G/	ca-
!	!	!	!	!	!	!	!	!	!	!LO:LB:g=original	!	!	!	!LO:LB:g=original	!
=20-	=20-	=20-	=20-	=20-	=20-	=20-	=20-	=20-	=20-	=20-	=20-	=20-	=20-	=20-	=20-
2r	.	2r	.	2r	.	2r	.	1a	-den-	(2g\	-den-	1a	-den-	1d	-den-
2d\	suc-	2d/	suc-	2dd\	suc-	2dd\	suc-	.	.	2f#X\)	.	.	.	.	.
!	!	!	!	!LO:SIC:v:t=custos bn	!	!	!	!	!	!	!	!	!	!	!
!	!	!	!	!LO:N:acc=#	!	!	!	!LO:TX:t=P:problem:oddech jako rozdzielacz słów:global	!	!LO:TX:t=P:problem:oddech jako rozdzielacz słów:global	!	!	!	!	!
2g\	-cur-	2d/	-cur-	2bn\	-cur-	2dd\	-cur-	2b-,</	-ti	2g,<\	-ti	2g,</	-ti	2G/	-ti
!	!	!	!	!LO:LB:g=original	!	!	!	!	!	!	!	!	!	!	!
!	!	!	!	!LO:N:acc=#	!	!	!	!	!	!	!	!	!	!	!
4g\	-re	4g\	-re	4bn\	-re	4dd\	-re	2dd\	suc-	2g\	suc-	2g/	suc-	2G/	suc-
4g\	ca-	4g\	ca-	4b\	ca-	4dd\	ca-	.	.	.	.	.	.	.	.
=21-	=21-	=21-	=21-	=21-	=21-	=21-	=21-	=21-	=21-	=21-	=21-	=21-	=21-	=21-	=21-
2c/	-den-	2e/	-den-	2cc\	-den-	2cc\	-den-	2ee\	-cur-	2g\	-cur-	2g/	-cur-	2c/	-cur-
2c/	-ti	2e/	-ti	2cc\	-ti	2cc\	-ti	4ee\	-re	4g\	-re	4g/	-re	4c,</	-re
.	.	.	.	.	.	.	.	4ee\	ca-	4g\	ca-	4g/	ca-	4c/	suc-
2r	.	2r	.	2r	.	2r	.	2cc\	-den-	2g\	-den-	2g/	-den-	2c/	-cur-
*	*	*	*	*	*	*	*ij	*	*	*	*	*	*	*	*
2c/	suc-	2g\	suc-	2g/	suc-	2cc\	suc-	4cc\	-ti	4g\	-ti	4g/	-ti	4c,</	-re
.	.	.	.	.	.	.	.	4cc\	suc-	4g\	suc-	4cc\	suc-	4c/	suc-
=22-	=22-	=22-	=22-	=22-	=22-	=22-	=22-	=22-	=22-	=22-	=22-	=22-	=22-	=22-	=22-
2f\	-cur-	2f\	-cur-	2a\	-cur-	2cc\	-cur-	2cc\	-cur-	2fny\	-cur-	2a\	-cur-	2F/	-cur-
4f\	-re	4f\	-re	4a\	-re	4cc\	-re	4cc\	-re	4f\	-re	4a\	-re	4F/	-re
4f\	ca-	4f\	ca-	4a\	ca-	4cc\	ca-	4ff\	ca-	4f\	ca-	4a\	ca-	4F/	ca-
1c	-den-	(2g\	-den-	1g	-den-	1cc	-den-	(2ff\	-den-	1g	-den-	1cc	-den-	1c	-den-
.	.	2e\)	.	.	.	.	.	2ee\)	.	.	.	.	.	.	.
=23-	=23-	=23-	=23-	=23-	=23-	=23-	=23-	=23-	=23-	=23-	=23-	=23-	=23-	=23-	=23-
1F	-ti	1a	-ti	1a	-ti	1cc	-ti	1ff	-ti	1f	-ti	1a	-ti	1f	-ti
*	*	*	*	*	*	*	*Xij	*	*	*	*	*	*	*	*
=24-	=24-	=24-	=24-	=24-	=24-	=24-	=24-	=24-	=24-	=24-	=24-	=24-	=24-	=24-	=24-
*M3/2	*	*M3/2	*	*M3/2	*	*M3/2	*	*M3/2	*	*M3/2	*	*M3/2	*	*M3/2	*
!LO:SIC:v:t=custos b	!	!	!	!	!	!	!	!	!	!	!	!	!	!	!
00.r	.	00.r	.	00.r	.	00.r	.	1.cc	Sur-	1.f	sur-	1.a	sur-	1.f	sur-
.	.	.	.	.	.	.	.	2cc\	-ge-	2f\	-ge-	2a\	-ge-	2f\	-ge-
.	.	.	.	.	.	.	.	1cc	-re	1f,<	-re	1a	-re	1f	-re
=25-	=25-	=25-	=25-	=25-	=25-	=25-	=25-	=25-	=25-	=25-	=25-	=25-	=25-	=25-	=25-
.	.	.	.	.	.	.	.	1a	qui	1a	qui	1cc	qui	1F	qui
.	.	.	.	.	.	.	.	1b-\	cu-	1g\	cu-	1b-\	cu-	1G/	cu-
!	!	!	!	!	!	!	!	!LO:SIC:v:t=custos dd	!	!	!	!LO:SIC:v:t=custos f	!	!	!
.	.	.	.	.	.	.	.	1cc	-rat	1f	-rat	1a	-rat	1A	-rat
!LO:LB:g=original	!	!	!	!	!	!	!	!LO:LB:g=original	!	!	!	!LO:LB:g=original	!	!	!
=26-	=26-	=26-	=26-	=26-	=26-	=26-	=26-	=26-	=26-	=26-	=26-	=26-	=26-	=26-	=26-
1.B-	sur-	1.f	sur-	1.b-y	sur-	1.dd	sur-	1.dd	po-	1.d	po-	1.f	po-	1.B-	po-
!	!	!	!	!	!	!	!	!	!	!LO:SIC:v:t=custos f	!	!	!	!	!
2B-/	-ge-	2f\	-ge-	2b-\	-ge-	2dd\	-ge-	2dd\	-pu-	2d/	-pu-	2f/	-pu-	2B-/	-pu-
!	!	!	!	!	!	!LO:SIC:v:t=custos cc	!	!	!	!LO:LB:g=original	!	!	!	!	!
1B-	-re	1f,<	-re	1b-	-re	1dd	-re	1dd	-lo	1f	-lo	1f	-lo	1B-	-lo
!	!	!	!	!	!	!LO:LB:g=original	!	!	!	!	!	!	!	!	!
=27-	=27-	=27-	=27-	=27-	=27-	=27-	=27-	=27-	=27-	=27-	=27-	=27-	=27-	=27-	=27-
1A	qui	1f	qui	1cc	qui	1cc	qui	0.r	.	0.r	.	0.r	.	0.r	.
1B-/	cu-	1f\	cu-	1b-\	cu-	1dd\	cu-	.	.	.	.	.	.	.	.
!	!	!LO:SIC:v:t=custos f	!	!	!	!	!	!	!	!	!	!	!	!	!
1c	-rat	1e	-rat	1g	-rat	1cc	-rat	.	.	.	.	.	.	.	.
!	!	!LO:LB:g=original	!	!	!	!	!	!	!	!	!	!	!	!	!
=28-	=28-	=28-	=28-	=28-	=28-	=28-	=28-	=28-	=28-	=28-	=28-	=28-	=28-	=28-	=28-
1.F	po-	1.f	po-	1.a	po-	1.cc	po-	1.ff	sur-	1.a	sur-	1.cc	sur-	1.f	sur-
2F/	-pu-	2f\	-pu-	2a\	-pu-	2cc\	-pu-	2ff\	-ge-	2a\	-ge-	2cc\	-ge-	2f\	-ge-
!	!	!	!	!	!	!	!	!	!	!	!	!	!	!LO:SIC:v:t=custos e	!
1F	-lo	1f	-lo	1a	-lo	1cc	-lo	1ff	-re	1a,<	-re	1cc	-re	1f	-re
!	!	!	!	!	!	!	!	!	!	!	!	!	!	!LO:LB:g=original	!
=29-	=29-	=29-	=29-	=29-	=29-	=29-	=29-	=29-	=29-	=29-	=29-	=29-	=29-	=29-	=29-
00.r	.	00.r	.	00.r	.	00.r	.	1cc	qui	1a	qui	1cc	qui	1eny	qui
.	.	.	.	.	.	.	.	1dd\	cu-	1a\	cu-	1cc\	cu-	1f\	cu-
!	!	!	!	!	!	!	!	!	!	!	!	!LO:N:acc=#	!	!	!
.	.	.	.	.	.	.	.	1dd,<	-rat	1g	-rat	1bn	-rat	1g	-rat
=30-	=30-	=30-	=30-	=30-	=30-	=30-	=30-	=30-	=30-	=30-	=30-	=30-	=30-	=30-	=30-
.	.	.	.	.	.	.	.	1.ee	po-	1.g	po-	1.cc	po-	1.c	po-
.	.	.	.	.	.	.	.	2ee\	-pu-	2g\	-pu-	2cc\	-pu-	2c/	-pu-
.	.	.	.	.	.	.	.	1ee,<	-lo	1g,<	-lo	1cc	-lo	1c	-lo
=31-	=31-	=31-	=31-	=31-	=31-	=31-	=31-	=31-	=31-	=31-	=31-	=31-	=31-	=31-	=31-
00.r	.	00.r	.	00.r	.	00.r	.	0ff	tu	0a	tu	0cc	tu	0f	tu
.	.	.	.	.	.	.	.	1ee	q(uae)	1g	q(uae)	1cc	q(uae)	1c,<	q(uae)
=32-	=32-	=32-	=32-	=32-	=32-	=32-	=32-	=32-	=32-	=32-	=32-	=32-	=32-	=32-	=32-
.	.	.	.	.	.	.	.	0dd	ge-	0f	ge-	0a	ge-	0d	ge-
.	.	.	.	.	.	.	.	1cc	-nu-	1f	-nu-	1a	-nu-	1A	-nu-
=33-	=33-	=33-	=33-	=33-	=33-	=33-	=33-	=33-	=33-	=33-	=33-	=33-	=33-	=33-	=33-
0B-	tu	0b-	tu	0b-	tu	0dd	Tu	0b-	-i-	0d	-i-	0f	-i-	0B-	-i-
1f,<	q(uae)	1a	q(uae)	1cc	q(uae)	1ff	q(uae)	1a	-sti	1f	-sti	1a	-sti	1F	-sti
=34-	=34-	=34-	=34-	=34-	=34-	=34-	=34-	=34-	=34-	=34-	=34-	=34-	=34-	=34-	=34-
!	!	!	!	!LO:SIC:v:t=custos f	!	!	!	!	!	!	!	!	!	!	!
0B-	ge-	0f	ge-	0b-	ge-	0dd	ge-	00.r	.	00.r	.	00.r	.	00.r	.
!	!	!	!	!LO:LB:g=original	!	!	!	!	!	!	!	!	!	!	!
1d	-nu-	1f	-nu-	1f	-nu-	1a	-nu-	.	.	.	.	.	.	.	.
=35-	=35-	=35-	=35-	=35-	=35-	=35-	=35-	=35-	=35-	=35-	=35-	=35-	=35-	=35-	=35-
0c	-i-	0e	-i-	0g	-i-	0cc	-i-	.	.	.	.	.	.	.	.
1F	-sti	1f	-sti	1a	-sti	1a	-ſti	.	.	.	.	.	.	.	.
=36-	=36-	=36-	=36-	=36-	=36-	=36-	=36-	=36-	=36-	=36-	=36-	=36-	=36-	=36-	=36-
*M2/1	*	*M2/1	*	*M2/1	*	*M2/1	*	*M2/1	*	*M2/1	*	*M2/1	*	*M2/1	*
*met(C|)	*	*met(C|)	*	*met(C|)	*	*met(C|)	*	*met(C|)	*	*met(C|)	*	*met(C|)	*	*met(C|)	*
!	!	!	!	!	!	!	!	!LO:SIC:v:t=custos ee	!	!	!	!LO:SIC:v:t=custos g	!	!	!
2r	.	2r	.	2r	.	2r	.	00r	.	00r	.	00r	.	00r	.
2F/	na-	2f\	na-	2a\	na-	2cc\	na-	.	.	.	.	.	.	.	.
1B-	-tu-	1f	-tu-	1b-	-tu-	1dd	-tu-	.	.	.	.	.	.	.	.
=37-	=37-	=37-	=37-	=37-	=37-	=37-	=37-	=37-	=37-	=37-	=37-	=37-	=37-	=37-	=37-
2F/	-ra	2f\	-ra	2a\	-ra	2cc\	-ra	.	.	.	.	.	.	.	.
2A/	mi-	2e/	mi-	2cc\	mi-	2cc\	mi-	.	.	.	.	.	.	.	.
!LO:SIC:v:t=custos c	!	!	!	!	!	!	!	!	!	!	!	!	!	!	!
1G	-ran-	1g	-ran-	(2cc\	-ran-	1dd	-ran-	.	.	.	.	.	.	.	.
!	!	!	!	!LO:N:acc=#	!	!	!	!	!	!	!	!	!	!	!
.	.	.	.	2bn\)	.	.	.	.	.	.	.	.	.	.	.
!LO:LB:g=original	!	!	!	!	!	!	!	!LO:LB:g=original	!	!	!	!LO:LB:g=original	!	!	!
=38-	=38-	=38-	=38-	=38-	=38-	=38-	=38-	=38-	=38-	=38-	=38-	=38-	=38-	=38-	=38-
!	!	!	!	!	!	!LO:SIC:v:t=custos dd	!	!	!	!	!	!	!	!	!
1c	-te	1e	-te	1cc	-te	1cc	-te	2r	.	2r	.	2r	.	2r	.
.	.	.	.	.	.	.	.	2ee\	na-	2cc\	na-	2g/	na-	2c/	na-
!	!	!	!	!	!	!LO:LB:g=original	!	!	!	!LO:SIC:v:t=custos b	!	!	!	!	!
0r	.	00r	.	00r	.	00r	.	1ff	-tu-	1a	-tu-	1dd	-tu-	1d	-tu-
!	!	!	!	!	!	!	!	!	!	!LO:LB:g=original	!	!	!	!	!
=39-	=39-	=39-	=39-	=39-	=39-	=39-	=39-	=39-	=39-	=39-	=39-	=39-	=39-	=39-	=39-
.	.	.	.	.	.	.	.	2dd\	-ra	2.b-\	-ra	2dd\	-ra	2B-/	-ra
.	.	.	.	.	.	.	.	2ee\	mi-	.	.	2b-y\	mi-	2G/	mi-
.	.	.	.	.	.	.	.	.	.	4g\	mi-	.	.	.	.
00r	.	.	.	.	.	.	.	1cc#X	-ran-	1eny	-ra-	1a	-ran-	1A	-ra-
=40-	=40-	=40-	=40-	=40-	=40-	=40-	=40-	=40-	=40-	=40-	=40-	=40-	=40-	=40-	=40-
.	.	.	.	.	.	.	.	2dd\	-te	2f#X\	-nte	2a\	-te	2d\	-nte
.	.	.	.	.	.	.	.	4dd\	tu-	4f#\	tu-	4a\	tu-	4d\	tu-
.	.	.	.	.	.	.	.	4dd\	-um	4f#\	-(um)	4a\	-um	4d\	-um
!	!	!	!	!	!	!	!	!	!	!	!	!LO:N:acc=#	!	!LO:SIC:v:t=custos c	!
.	.	0r	.	0r	.	0r	.	2dd\	ſan-	2g\	san-	2bn\	san-	2g\	ſan-
!	!	!	!	!	!	!	!	!	!	!	!	!	!	!LO:LB:g=original	!
.	.	.	.	.	.	.	.	2ee-X\	-ctum	2g\	-ct(um)	2cc,<\	-ctum	2c/	-ctum
=41-	=41-	=41-	=41-	=41-	=41-	=41-	=41-	=41-	=41-	=41-	=41-	=41-	=41-	=41-	=41-
.	.	.	.	.	.	.	.	2dd\	ge-	2f#X\	ge-	2a\	ge-	2d\	ge-
.	.	.	.	.	.	.	.	2ccny\	-ni-	2g\	-ni-	2g/	-ni-	2e-X\	-ni-
1r	.	1r	.	1r	.	1r	.	1dd	-to-	(2g\	-to-	1a	-to-	1d	-to-
.	.	.	.	.	.	.	.	.	.	2f#X\)	.	.	.	.	.
=42-	=42-	=42-	=42-	=42-	=42-	=42-	=42-	=42-	=42-	=42-	=42-	=42-	=42-	=42-	=42-
!	!	!	!	!	!	!	!	!	!	!	!	!LO:N:acc=#	!	!	!
2r	.	2r	.	2r	.	2r	.	1dd	-rem	1g	-rem	1bn	-rem	1G	-rem
!	!	!	!	!LO:N:acc=#	!	!	!	!	!	!	!	!	!	!	!
4G/	tu-	4g\	tu-	4bn\	tu-	4dd\	tu-	.	.	.	.	.	.	.	.
4G/	-um	4g\	-um	4b\	-um	4dd\	-um	.	.	.	.	.	.	.	.
2.A/	san-	2.e/	San-	2.cc\	San-	2.cc\	San-	00r	.	00r	.	00r	.	00r	.
!	!	!LO:SIC:v:t=custos g	!	!	!	!	!	!	!	!	!	!	!	!	!
4F/	-ct(um)	4a\	-ct(um)	4a\	-ctum	4cc\	-ct(um)	.	.	.	.	.	.	.	.
!	!	!LO:LB:g=original	!	!	!	!	!	!	!	!	!	!	!	!	!
=43-	=43-	=43-	=43-	=43-	=43-	=43-	=43-	=43-	=43-	=43-	=43-	=43-	=43-	=43-	=43-
!	!	!	!	!LO:N:acc=#	!	!	!	!	!	!	!	!	!	!	!
2G/	ge-	2g\	ge-	2bn\	ge-	2dd\	ge-	.	.	.	.	.	.	.	.
2A/	-ni-	2e/	-ni-	2cc\	-ni-	2cc\	-ni-	.	.	.	.	.	.	.	.
1G	-to-	1g	-to-	(2cc\	-to-	1dd	-to-	.	.	.	.	.	.	.	.
!	!	!	!	!LO:N:acc=#	!	!	!	!	!	!	!	!	!	!	!
.	.	.	.	2bn\)	.	.	.	.	.	.	.	.	.	.	.
=44-	=44-	=44-	=44-	=44-	=44-	=44-	=44-	=44-	=44-	=44-	=44-	=44-	=44-	=44-	=44-
1c	-rem	1e	-rem	1cc	-rem	1cc	-rem	.	.	.	.	.	.	.	.
!	!	!	!	!LO:LB:g=original	!	!	!	!	!	!	!	!	!	!	!
=45-	=45-	=45-	=45-	=45-	=45-	=45-	=45-	=45-	=45-	=45-	=45-	=45-	=45-	=45-	=45-
*M3/2	*	*M3/2	*	*M3/2	*	*M3/2	*	*M3/2	*	*M3/2	*	*M3/2	*	*M3/2	*
00.r	.	00.r	.	00.r	.	00.r	.	0cc	Vir-	0fny	Vir-	0a	Vir-	0F	Vir-
.	.	.	.	.	.	.	.	1b-	-go	1d	-go	1b-y	-go	1G	-go
=46-	=46-	=46-	=46-	=46-	=46-	=46-	=46-	=46-	=46-	=46-	=46-	=46-	=46-	=46-	=46-
.	.	.	.	.	.	.	.	0a	pri-	0f	pri-	0cc	pri-	0F	pri-
.	.	.	.	.	.	.	.	1b-	-us	1f,<	-us	1b-	-us	1G	-us
=47-	=47-	=47-	=47-	=47-	=47-	=47-	=47-	=47-	=47-	=47-	=47-	=47-	=47-	=47-	=47-
00.r	.	00.r	.	00.r	.	00.r	.	0cc	ac	0f	ac	0a	ac	0F	ac
!	!	!	!	!	!	!	!	!LO:SIC:v:t=custos a	!	!	!	!LO:SIC:v:t=custos cc	!	!	!
.	.	.	.	.	.	.	.	1b-	po-	1d	po-	1b-	po-	1G	po-
!	!	!	!	!	!	!	!	!LO:LB:g=original	!	!	!	!LO:LB:g=original	!	!	!
=48-	=48-	=48-	=48-	=48-	=48-	=48-	=48-	=48-	=48-	=48-	=48-	=48-	=48-	=48-	=48-
.	.	.	.	.	.	.	.	1.a	-ſte-	1.f	-ste-	1.cc	-ste-	1.F	-ste-
.	.	.	.	.	.	.	.	2a/	-ri-	2f\	-ri-	2cc\	-ri-	2F/	-ri-
!	!	!	!	!	!	!	!	!	!	!LO:SIC:v:t=custos g	!	!	!	!	!
.	.	.	.	.	.	.	.	1b-,<	-us	1d	-us	1b-,<	-us	1G	-us
!	!	!	!	!	!	!	!	!	!	!LO:LB:g=original	!	!	!	!	!
=49-	=49-	=49-	=49-	=49-	=49-	=49-	=49-	=49-	=49-	=49-	=49-	=49-	=49-	=49-	=49-
00.r	.	00.r	.	00.r	.	00.r	.	0b-	Ga-	0g	Ga-	0dd	Ga-	0G	Ga-
.	.	.	.	.	.	.	.	1cc	-bri-	1f	-bri-	1cc	-bri-	1A	-bri-
=50-	=50-	=50-	=50-	=50-	=50-	=50-	=50-	=50-	=50-	=50-	=50-	=50-	=50-	=50-	=50-
.	.	.	.	.	.	.	.	0dd	-e-	0f	-e-	0b-	-e-	0B-	-e-
.	.	.	.	.	.	.	.	1b-	-lis	1g	-lis	1b-	-lis	1G	-lis
=51-	=51-	=51-	=51-	=51-	=51-	=51-	=51-	=51-	=51-	=51-	=51-	=51-	=51-	=51-	=51-
00.r	.	00.r	.	00.r	.	00.r	.	1b-	ab	1g	ab	1g	ab	1G	ab
!	!	!	!	!	!	!	!	!	!	!	!	!	!	!LO:SIC:v:t=custos G	!
.	.	.	.	.	.	.	.	0a/	o-	(1g\	o-	0a\	o-	0d\	o-
.	.	.	.	.	.	.	.	.	.	1f#X)	.	.	.	.	.
!	!	!	!	!	!	!	!	!	!	!	!	!	!	!LO:LB:g=original	!
=52-	=52-	=52-	=52-	=52-	=52-	=52-	=52-	=52-	=52-	=52-	=52-	=52-	=52-	=52-	=52-
!	!	!	!	!	!	!	!	!	!	!	!	!LO:N:acc=#	!	!	!
.	.	.	.	.	.	.	.	0.g	-re	0.g	-re	0.bn	-re	0.G	-re
=53-	=53-	=53-	=53-	=53-	=53-	=53-	=53-	=53-	=53-	=53-	=53-	=53-	=53-	=53-	=53-
0F	Vir-	0f	Vir-	0a	Vir-	0cc	Vir-	00.r	.	00.r	.	00.r	.	00.r	.
1G	-go	1d	-go	1b-y	-go	1b-	-go	.	.	.	.	.	.	.	.
=54-	=54-	=54-	=54-	=54-	=54-	=54-	=54-	=54-	=54-	=54-	=54-	=54-	=54-	=54-	=54-
0F	pri-	0f	pri-	0cc	pri-	0a	pri-	.	.	.	.	.	.	.	.
1G	-us	1f,<	-us	1b-	-us	1b-	-us	.	.	.	.	.	.	.	.
=55-	=55-	=55-	=55-	=55-	=55-	=55-	=55-	=55-	=55-	=55-	=55-	=55-	=55-	=55-	=55-
0F	ac	0f	ac	0a	ac	0cc	ac	00.r	.	00.r	.	00.r	.	00.r	.
1G	po-	1d	po-	1b-	po-	1b-	po-	.	.	.	.	.	.	.	.
=56-	=56-	=56-	=56-	=56-	=56-	=56-	=56-	=56-	=56-	=56-	=56-	=56-	=56-	=56-	=56-
1.F	-ste-	1.f	-ste-	1.cc	-ste-	1.a	-ste-	.	.	.	.	.	.	.	.
2F/	-ri-	2f\	-ri-	2cc\	-ri-	2a/	-ri-	.	.	.	.	.	.	.	.
1G	-us	1f	-us	1b-	-us	1b-	-us	.	.	.	.	.	.	.	.
=57-	=57-	=57-	=57-	=57-	=57-	=57-	=57-	=57-	=57-	=57-	=57-	=57-	=57-	=57-	=57-
!LO:SIC:v:t=custos G	!	!	!	!	!	!	!	!	!	!	!	!	!	!	!
0F	Ga-	0f	Ga-	0a	Ga-	0cc	Ga-	00.r	.	00.r	.	00.r	.	00.r	.
!LO:LB:g=original	!	!	!	!	!	!LO:SIC:v:t=custos a	!	!	!	!	!	!	!	!	!
1G	-bri-	1d	-bri-	1b-	-bri-	1b-	-bri-	.	.	.	.	.	.	.	.
!	!	!	!	!	!	!LO:LB:g=original	!	!	!	!	!	!	!	!	!
=58-	=58-	=58-	=58-	=58-	=58-	=58-	=58-	=58-	=58-	=58-	=58-	=58-	=58-	=58-	=58-
0A	-e-	0f	-e-	0cc	-e-	0a	-e-	.	.	.	.	.	.	.	.
1F	-lis	1f	-lis	1a	-lis	1cc	-lis	.	.	.	.	.	.	.	.
=59-	=59-	=59-	=59-	=59-	=59-	=59-	=59-	=59-	=59-	=59-	=59-	=59-	=59-	=59-	=59-
1F	ab	1f	ab	1a	ab	1cc	ab	00.r	.	00.r	.	00.r	.	00.r	.
0c\	o-	(1f	o-	0g\	o-	0cc\	o-	.	.	.	.	.	.	.	.
.	.	1e)	.	.	.	.	.	.	.	.	.	.	.	.	.
=60-	=60-	=60-	=60-	=60-	=60-	=60-	=60-	=60-	=60-	=60-	=60-	=60-	=60-	=60-	=60-
!	!	!LO:SIC:v:t=custos f	!	!	!	!	!	!	!	!	!	!	!	!	!
0.F	-re-	0.f	-re	0.a	-re	0.a	-re	.	.	.	.	.	.	.	.
!	!	!LO:LB:g=original	!	!	!	!	!	!	!	!	!	!	!	!	!
=61-	=61-	=61-	=61-	=61-	=61-	=61-	=61-	=61-	=61-	=61-	=61-	=61-	=61-	=61-	=61-
0B-	Vir-	0f	Vir-	0b-	Vir-	0dd	Vir-	0ff	Vir-	0fny	Vir-	0dd	Vir-	0B-	Vir-
1B-	-go	1b-	-go	1dd	-go	1dd	-go	1dd	-go	1f	-go	1b-y	-go	1B-	-go
=62-	=62-	=62-	=62-	=62-	=62-	=62-	=62-	=62-	=62-	=62-	=62-	=62-	=62-	=62-	=62-
0F	pri-	0a	pri-	0a	pri-	0cc	pri-	0ff	pri-	0a	pri-	0cc	pri-	0f	pri-
1F,<	-us	1a	-us	1a	-us	1cc	-us	1ff	-us	1a	-us	1cc	-us	1f	-us
=63-	=63-	=63-	=63-	=63-	=63-	=63-	=63-	=63-	=63-	=63-	=63-	=63-	=63-	=63-	=63-
0B-,<	ac	0b-	ac	0b-	ac	0b-	ac	0ff	ac	0f	ac	0dd	ac	0B-	ac
!	!	!	!	!LO:SIC:v:t=custos a	!	!	!	!	!	!	!	!	!	!	!
1B-	po-	1b-	po-	1dd	po-	1dd	po-	1dd	po-	1f	po-	1b-	po-	1B-	po-
!	!	!	!	!LO:LB:g=original	!	!	!	!	!	!	!	!	!	!	!
=64-	=64-	=64-	=64-	=64-	=64-	=64-	=64-	=64-	=64-	=64-	=64-	=64-	=64-	=64-	=64-
1.F	-ste-	1.a	-ste-	1.a	-ste-	1.cc	-ste-	1.ff	-ſte-	1.a	-ste-	1.cc	-ste-	1.f	-ste-
2F/	-ri-	2a\	-ri-	2a\	-ri-	2cc\	-ri-	2ff\	-ri-	2a\	-ri-	2cc\	-ri-	2f\	-ri-
!	!	!	!	!	!	!LO:TX:t=P:problem:oddech jako rozdzielacz słów:global	!	!	!	!	!	!	!	!	!
1F	-us	1a,<	-us	1a	-us	1cc,<	-us	1ff	-us	1a,<	-us	1cc,<	-us	1f	-us
=65-	=65-	=65-	=65-	=65-	=65-	=65-	=65-	=65-	=65-	=65-	=65-	=65-	=65-	=65-	=65-
0F	Ga-	0f	Ga-	0a	Ga-	0cc	Ga-	0ff	Ga-	0a	Ga-	0a	Ga-	0f	Ga-
!	!	!	!	!	!	!	!	!	!	!	!	!LO:SIC:v:t=custos cc	!	!	!
1F	-bri-	1f	-bri-	1cc	-bri-	1cc	-bri-	1ff	-bri-	1a	-bri-	1a	-bri-	1f	-bri-
!	!	!	!	!	!	!	!	!	!	!	!	!LO:PB:g=original	!	!	!
=66-	=66-	=66-	=66-	=66-	=66-	=66-	=66-	=66-	=66-	=66-	=66-	=66-	=66-	=66-	=66-
!	!	!	!	!	!	!	!	!	!	!LO:SIC:v:t=custos a	!	!	!	!	!
0c	-e-	0g	-e-	0cc	-e-	0cc	-e-	0eeny	-e-	0g	-e-	0cc	-e-	0c	-e-
!	!	!	!	!	!	!	!	!LO:SIC:v:t=custos ff	!	!LO:PB:g=original	!	!	!	!	!
1F	-lis	1g	-lis	1a	-lis	1cc,<	-lis	1ff	-lis	1a	-lis	1cc	-lis	1f	-lis
!	!	!	!	!	!	!	!	!LO:PB:g=original	!	!	!	!	!	!	!
=67-	=67-	=67-	=67-	=67-	=67-	=67-	=67-	=67-	=67-	=67-	=67-	=67-	=67-	=67-	=67-
1F	ab	1f,<	ab	1cc	ab	1cc	ab	1ff	ab	1a	ab	1a	ab	1f	ab
0c\	o-	0g\	o-	0cc\	o-	0cc\	o-	(1ff\	o-	0g\	o-	0cc\	o-	0c\	o-
.	.	.	.	.	.	.	.	1ee)	.	.	.	.	.	.	.
=68-	=68-	=68-	=68-	=68-	=68-	=68-	=68-	=68-	=68-	=68-	=68-	=68-	=68-	=68-	=68-
*M2/1	*	*M2/1	*	*M2/1	*	*M2/1	*	*M2/1	*	*M2/1	*	*M2/1	*	*M2/1	*
*met(C|)	*	*met(C|)	*	*met(C|)	*	*met(C|)	*	*met(C|)	*	*met(C|)	*	*met(C|)	*	*met(C|)	*
!LO:SIC:v:t=custos f	!	!	!	!	!	!LO:SIC:v:t=custos dd	!	!	!	!	!	!	!	!LO:SIC:v:t=custos f	!
1F	-re	1f	-re	1cc	-re	1cc	-re	1ff	-re	1a	-re	1a	-re	1f	-re
!LO:PB:g=original	!	!	!	!	!	!LO:PB:g=original	!	!	!	!	!	!	!	!LO:PB:g=original	!
=69-	=69-	=69-	=69-	=69-	=69-	=69-	=69-	=69-	=69-	=69-	=69-	=69-	=69-	=69-	=69-
00r	.	00r	.	00r	.	00r	.	2.f/	su-	0r	.	1r	.	1r	.
.	.	.	.	.	.	.	.	4g/	-mens	.	.	.	.	.	.
.	.	.	.	.	.	.	.	2a/	il-	.	.	2.f/	su-	2f\	su-
.	.	.	.	.	.	.	.	2b-/	-lud	.	.	.	.	2B-/	-mens
.	.	.	.	.	.	.	.	.	.	.	.	4g/	-mens	.	.
=70-	=70-	=70-	=70-	=70-	=70-	=70-	=70-	=70-	=70-	=70-	=70-	=70-	=70-	=70-	=70-
.	.	.	.	.	.	.	.	(2cc\	a-	2.f\	su-	2a\	il-	2f\	il-
.	.	.	.	.	.	.	.	(2dd\)	.	.	.	2b-\	-lud	2B-,</	-lud
.	.	.	.	.	.	.	.	.	.	4g\	-mens	.	.	.	.
.	.	.	.	.	.	.	.	2cc\)	.	2a\	il-	(2a\	a-	2f\	a-
.	.	.	.	.	.	.	.	1b-\	.	2b-,<\	-lud	(2g\)	.	2g\	.
=71-	=71-	=71-	=71-	=71-	=71-	=71-	=71-	=71-	=71-	=71-	=71-	=71-	=71-	=71-	=71-
00r	.	00r	.	00r	.	0r	.	.	.	1f	a-	1cc)	.	1f	.
.	.	.	.	.	.	.	.	2a/	.	.	.	.	.	.	.
.	.	.	.	.	.	.	.	1b-,<	-ue	1d	-ue	1b-	-ue	1B-	-ue
=72-	=72-	=72-	=72-	=72-	=72-	=72-	=72-	=72-	=72-	=72-	=72-	=72-	=72-	=72-	=72-
.	.	.	.	.	.	2.dd\	pec-	2.b-/	pec-	00r	.	00r	.	00r	.
.	.	.	.	.	.	4dd\	-ca-	4b-/	-ca-	.	.	.	.	.	.
.	.	.	.	.	.	2cc\	-to-	2a/	-to-	.	.	.	.	.	.
.	.	.	.	.	.	2ee-X\	-rum	2cc\	-rum	.	.	.	.	.	.
=73-	=73-	=73-	=73-	=73-	=73-	=73-	=73-	=73-	=73-	=73-	=73-	=73-	=73-	=73-	=73-
00r	.	00r	.	00r	.	4dd\	Mi-	2b-/	mi-	.	.	.	.	.	.
.	.	.	.	.	.	4eeny\	.	.	.	.	.	.	.	.	.
.	.	.	.	.	.	1ff\	.	2b-/	-se-	.	.	.	.	.	.
.	.	.	.	.	.	.	.	(4a/	-re-	.	.	.	.	.	.
.	.	.	.	.	.	.	.	4f/)	.	.	.	.	.	.	.
.	.	.	.	.	.	2b-/	-se-	1b-\	.	.	.	.	.	.	.
=74-	=74-	=74-	=74-	=74-	=74-	=74-	=74-	=74-	=74-	=74-	=74-	=74-	=74-	=74-	=74-
.	.	.	.	.	.	(2.cc\	-re-	.	.	00r	.	00r	.	00r	.
.	.	.	.	.	.	.	.	2a/	.	.	.	.	.	.	.
.	.	.	.	.	.	4b-\)	.	.	.	.	.	.	.	.	.
.	.	.	.	.	.	1b-	-re	1b-	-re	.	.	.	.	.	.
=75-	=75-	=75-	=75-	=75-	=75-	=75-	=75-	=75-	=75-	=75-	=75-	=75-	=75-	=75-	=75-
1r	.	0r	.	1r	.	2.f/	su-	00r	.	.	.	.	.	.	.
.	.	.	.	.	.	4g/	-mens	.	.	.	.	.	.	.	.
2f\	su-	.	.	2.f/	ſu-	2a/	il-	.	.	.	.	.	.	.	.
2B-/	-mens	.	.	.	.	2b-/	-lud	.	.	.	.	.	.	.	.
.	.	.	.	4g/	-mens	.	.	.	.	.	.	.	.	.	.
=76-	=76-	=76-	=76-	=76-	=76-	=76-	=76-	=76-	=76-	=76-	=76-	=76-	=76-	=76-	=76-
2f\	il-	2.f\	su-	2a\	il-	(2cc\	a-	.	.	00r	.	00r	.	00r	.
2B-/	-lud	.	.	2b-\	-lud	2dd\)	.	.	.	.	.	.	.	.	.
.	.	4g\	-mens	.	.	.	.	.	.	.	.	.	.	.	.
(2f\	a-	2a\	il-	(2cc\	a-	2cc\	.	.	.	.	.	.	.	.	.
!	!	!LO:SIC:v:t=custos f	!	!	!	!	!	!	!	!	!	!	!	!	!
(2g\)	.	2b-\	-lud	(1b-\)	.	2g/	.	.	.	.	.	.	.	.	.
!	!	!LO:PB:g=original	!	!	!	!	!	!	!	!	!	!	!	!	!
=77-	=77-	=77-	=77-	=77-	=77-	=77-	=77-	=77-	=77-	=77-	=77-	=77-	=77-	=77-	=77-
!	!	!	!	!	!	!	!	!LO:SIC:v:t=custos dd	!	!	!	!	!	!	!
1f)	.	1f	a-	.	.	1cc	.	0r	.	.	.	.	.	.	.
.	.	.	.	2a\)	.	.	.	.	.	.	.	.	.	.	.
!	!	!	!	!	!	!LO:SIC:v:t=custos b	!	!	!	!	!	!	!	!	!
1B-	-ue	1d	-ue	1b-	-ue	1b-	-ue	.	.	.	.	.	.	.	.
!	!	!	!	!	!	!LO:LB:g=original	!	!LO:LB:g=original	!	!	!	!	!	!	!
=78-	=78-	=78-	=78-	=78-	=78-	=78-	=78-	=78-	=78-	=78-	=78-	=78-	=78-	=78-	=78-
00r	.	00r	.	00r	.	2.b-/	pec-	2.dd\	pec-	00r	.	00r	.	00r	.
.	.	.	.	.	.	4b-/	-ca-	4dd\	-ca-	.	.	.	.	.	.
.	.	.	.	.	.	2a/	-to-	2cc\	-to-	.	.	.	.	.	.
.	.	.	.	.	.	2cc\	-rum	2ee-X\	-rum	.	.	.	.	.	.
=79-	=79-	=79-	=79-	=79-	=79-	=79-	=79-	=79-	=79-	=79-	=79-	=79-	=79-	=79-	=79-
.	.	.	.	.	.	2.b-/	Mi-	(4dd\	Mi-	.	.	.	.	.	.
.	.	.	.	.	.	.	.	4eeny\)	.	.	.	.	.	.	.
.	.	.	.	.	.	.	.	1ff\	-se-	.	.	.	.	.	.
.	.	.	.	.	.	4b-/	-se-	.	.	.	.	.	.	.	.
.	.	.	.	.	.	(4a/	-re-	.	.	.	.	.	.	.	.
.	.	.	.	.	.	4f/)	.	.	.	.	.	.	.	.	.
.	.	.	.	.	.	(<1b-\	.	2b-/	.	.	.	.	.	.	.
=80-	=80-	=80-	=80-	=80-	=80-	=80-	=80-	=80-	=80-	=80-	=80-	=80-	=80-	=80-	=80-
0r	.	0r	.	0r	.	.	.	(2.cc\	-re-	0r	.	0r	.	0r	.
.	.	.	.	.	.	2a/)	.	.	.	.	.	.	.	.	.
.	.	.	.	.	.	.	.	4b-\)	.	.	.	.	.	.	.
.	.	.	.	.	.	1b-,<	-re	1b-	-re	.	.	.	.	.	.
=81-	=81-	=81-	=81-	=81-	=81-	=81-	=81-	=81-	=81-	=81-	=81-	=81-	=81-	=81-	=81-
1.B-	pec-	1.f	pec-	1.b-	pec-	1.dd	pec-	2.dd\	pec-	1.f	pec-	1.b-	pec-	2.B-/	pec-
.	.	.	.	.	.	.	.	4dd\	-ca-	.	.	.	.	4B-/	-ca-
.	.	.	.	.	.	.	.	2dd\	-to-	.	.	.	.	1B-	-to-
!	!	!	!	!LO:SIC:v:t=custos a	!	!	!	!	!	!	!	!	!	!	!
2B-/	-ca-	2f\	-ca-	2f/	-ca-	2dd\	-ca-	2ff\	-rum	2f\	-ca-	2b-\	-ca-	.	.
!	!	!	!	!LO:PB:g=original	!	!	!	!	!	!	!	!	!	!	!
=82-	=82-	=82-	=82-	=82-	=82-	=82-	=82-	=82-	=82-	=82-	=82-	=82-	=82-	=82-	=82-
2.F/	-to-	0f	-to-	1a	-to-	1.cc	-to-	1.ff	Mi-	1.f	-to-	4a\	-to-	1f	-rum
!	!	!	!	!	!	!	!	!	!	!	!	!LO:SIC:v:t=custos cc	!	!	!
.	.	.	.	.	.	.	.	.	.	.	.	4b-\	.	.	.
!	!	!	!	!	!	!	!	!	!	!	!	!LO:LB:g=original	!	!	!
.	.	.	.	.	.	.	.	.	.	.	.	1cc\	.	.	.
4G/	-rum	.	.	.	.	.	.	.	.	.	.	.	.	.	.
1.A	Mi-	.	.	1a	-rum	.	.	.	.	.	.	.	.	1.c	Mi-
.	.	.	.	.	.	2cc\	-rum	2cc\	-se-	2g\	-rum	2cc\	-rum	.	.
=83-	=83-	=83-	=83-	=83-	=83-	=83-	=83-	=83-	=83-	=83-	=83-	=83-	=83-	=83-	=83-
.	.	2f\	-rum	2a\	Mi-	2cc\	Mi-	2.cc\	-re-	2g\	mi-	2cc\	Mi-	.	.
!	!	!	!	!	!	!	!	!	!	!LO:SIC:v:t=custos g	!	!	!	!	!
2B-/	-se-	2d/	Mi-	(1g\	-se-	2g/	-se-	.	.	2f\	-se-	1b-\	-se-	2c/	-se-
.	.	.	.	.	.	.	.	4dd\	.	.	.	.	.	.	.
!	!	!	!	!	!	!	!	!	!	!LO:LB:g=original	!	!	!	!	!
0c	-re-	2g\	-se-	.	.	0cc	-re-	2ee\	.	1g	-re-	.	.	0c	-re-
.	.	2c/	-re-	2cc\)	.	.	.	1ff\	.	.	.	2a\	.	.	.
=84-	=84-	=84-	=84-	=84-	=84-	=84-	=84-	=84-	=84-	=84-	=84-	=84-	=84-	=84-	=84-
.	.	0c	-re	1g	-re-	.	.	.	.	1g	.	1cc	-re-	.	.
.	.	.	.	.	.	.	.	2ee\	.	.	.	.	.	.	.
!	!	!	!	!	!	!	!	!LO:SIC:v:t=custos f	!	!	!	!	!	!	!
1F	-re	.	.	1a;<	-re	1cc	-re	1ff;<	-re	1a;<	-re	1a;<	-re	1f;<	-re
!LO:LB:g=original	!	!LO:LB:g=original	!	!	!	!	!	!LO:LB:g=original	!	!	!	!	!	!	!
=85-	=85-	=85-	=85-	=85-	=85-	=85-	=85-	=85-	=85-	=85-	=85-	=85-	=85-	=85-	=85-
!	!	!	!	!	!	!	!	!	!	!	!	!	!	!LO:SIC:v:t=custos f	!
00r	.	00r	.	00r	.	00r	.	2.f/	Su-	0r	.	1r	.	1r	.
.	.	.	.	.	.	.	.	4g/	-mens	.	.	.	.	.	.
!	!	!	!	!	!	!	!	!	!	!	!	!	!	!LO:LB:g=original	!
.	.	.	.	.	.	.	.	2a/	il-	.	.	2.f/	su-	2f\	su-
.	.	.	.	.	.	.	.	2b-,</	-lud	.	.	.	.	2B-/	-mens
.	.	.	.	.	.	.	.	.	.	.	.	4g/	-mens	.	.
=86-	=86-	=86-	=86-	=86-	=86-	=86-	=86-	=86-	=86-	=86-	=86-	=86-	=86-	=86-	=86-
.	.	.	.	.	.	.	.	2cc\	a-	2.f\	su-	2a\	il-	2f\	il-
.	.	.	.	.	.	.	.	2dd\	.	.	.	2b-\	-lud	2B-/	-lud
.	.	.	.	.	.	.	.	.	.	4g\	-mens	.	.	.	.
.	.	.	.	.	.	.	.	2cc\	.	2a\	il-	(<2a\	a-	2f\	a-
.	.	.	.	.	.	.	.	1b-\	.	2b-\	-lud	(2g/)	.	2g\	.
=87-	=87-	=87-	=87-	=87-	=87-	=87-	=87-	=87-	=87-	=87-	=87-	=87-	=87-	=87-	=87-
!	!	!	!	!	!	!LO:SIC:v:t=custos dd	!	!	!	!	!	!	!	!	!
00r	.	00r	.	00r	.	0r	.	.	.	1f	a-	1cc)	.	1f	.
.	.	.	.	.	.	.	.	2a/	.	.	.	.	.	.	.
.	.	.	.	.	.	.	.	1b-,<	-ue	1d	-ue	1b-	-ue	1B-	-ue
!	!	!	!	!	!	!LO:LB:g=original	!	!	!	!	!	!	!	!	!
=88-	=88-	=88-	=88-	=88-	=88-	=88-	=88-	=88-	=88-	=88-	=88-	=88-	=88-	=88-	=88-
.	.	.	.	.	.	2.dd\	pec-	2.b-/	pec-	00r	.	00r	.	00r	.
.	.	.	.	.	.	4dd\	-ca-	4b-/	-ca-	.	.	.	.	.	.
.	.	.	.	.	.	2cc\	-to-	2a/	-to-	.	.	.	.	.	.
.	.	.	.	.	.	2ee-X\	-rum	2cc\	-rum	.	.	.	.	.	.
=89-	=89-	=89-	=89-	=89-	=89-	=89-	=89-	=89-	=89-	=89-	=89-	=89-	=89-	=89-	=89-
00r	.	00r	.	00r	.	4dd\	mi-	2.b-/	mi-	.	.	.	.	.	.
.	.	.	.	.	.	4eeny\	.	.	.	.	.	.	.	.	.
.	.	.	.	.	.	1ff\	.	.	.	.	.	.	.	.	.
.	.	.	.	.	.	.	.	4b-/	-se-	.	.	.	.	.	.
.	.	.	.	.	.	.	.	(4a/	-re-	.	.	.	.	.	.
.	.	.	.	.	.	.	.	4f/)	.	.	.	.	.	.	.
.	.	.	.	.	.	2b-/	-se-	1b-\	.	.	.	.	.	.	.
=90-	=90-	=90-	=90-	=90-	=90-	=90-	=90-	=90-	=90-	=90-	=90-	=90-	=90-	=90-	=90-
.	.	.	.	.	.	(2.cc\	-re-	.	.	00r	.	00r	.	00r	.
.	.	.	.	.	.	.	.	2a/	.	.	.	.	.	.	.
.	.	.	.	.	.	4b-\)	.	.	.	.	.	.	.	.	.
.	.	.	.	.	.	1b-	-re	1b-	-re	.	.	.	.	.	.
=91-	=91-	=91-	=91-	=91-	=91-	=91-	=91-	=91-	=91-	=91-	=91-	=91-	=91-	=91-	=91-
1r	.	0r	.	1r	.	2.f/	su-	00r	.	.	.	.	.	.	.
.	.	.	.	.	.	4g/	-mens	.	.	.	.	.	.	.	.
2f\	su-	.	.	2.f/	su-	2a/	il-	.	.	.	.	.	.	.	.
2B-/	-mens	.	.	.	.	2b-/	-lud	.	.	.	.	.	.	.	.
.	.	.	.	4g/	-mens	.	.	.	.	.	.	.	.	.	.
=92-	=92-	=92-	=92-	=92-	=92-	=92-	=92-	=92-	=92-	=92-	=92-	=92-	=92-	=92-	=92-
2f\	il-	2.f\	su-	2a\	il-	(2cc\	a-	.	.	00r	.	00r	.	00r	.
2B-\	-lud	.	.	2b-\	-lud	2dd\)	.	.	.	.	.	.	.	.	.
.	.	4g\	-mens	.	.	.	.	.	.	.	.	.	.	.	.
(2f\	a-	2a\	il-	(2cc\	a-	2cc\	.	.	.	.	.	.	.	.	.
2g\)	.	2b-\	-lud	(1b-\)	.	2g/	.	.	.	.	.	.	.	.	.
=93-	=93-	=93-	=93-	=93-	=93-	=93-	=93-	=93-	=93-	=93-	=93-	=93-	=93-	=93-	=93-
1f	.	1f	a-	.	.	1cc	.	0r	.	.	.	.	.	.	.
.	.	.	.	2a\)	.	.	.	.	.	.	.	.	.	.	.
!	!	!	!	!	!	!LO:SIC:v:t=custos b	!	!	!	!	!	!	!	!	!
1B-	-ue	1d	-ue	1b-	-ue	1b-	-ue	.	.	.	.	.	.	.	.
!	!	!	!	!	!	!LO:LB:g=original	!	!	!	!	!	!	!	!	!
=94-	=94-	=94-	=94-	=94-	=94-	=94-	=94-	=94-	=94-	=94-	=94-	=94-	=94-	=94-	=94-
00r	.	00r	.	00r	.	2.b-/	pec-	2.dd\	pec-	00r	.	00r	.	00r	.
!	!	!	!	!	!	!	!	!LO:SIC:v:t=custos cc	!	!	!	!	!	!	!
.	.	.	.	.	.	4b-/	-ca-	4dd\	-ca-	.	.	.	.	.	.
!	!	!	!	!	!	!	!	!LO:LB:g=original	!	!	!	!	!	!	!
.	.	.	.	.	.	2a/	-to-	2cc\	-to-	.	.	.	.	.	.
.	.	.	.	.	.	2cc\	-rum	2ee-X\	-rum	.	.	.	.	.	.
=95-	=95-	=95-	=95-	=95-	=95-	=95-	=95-	=95-	=95-	=95-	=95-	=95-	=95-	=95-	=95-
.	.	.	.	.	.	2.b-/	Mi-	4dd\	Mi-	.	.	.	.	.	.
.	.	.	.	.	.	.	.	4eeny\	.	.	.	.	.	.	.
.	.	.	.	.	.	.	.	1ff\	.	.	.	.	.	.	.
.	.	.	.	.	.	4b-/	-se-	.	.	.	.	.	.	.	.
.	.	.	.	.	.	(4a/	-re-	.	.	.	.	.	.	.	.
.	.	.	.	.	.	4f/)	.	.	.	.	.	.	.	.	.
.	.	.	.	.	.	(<1b-\	.	2b-/	-se-	.	.	.	.	.	.
=96-	=96-	=96-	=96-	=96-	=96-	=96-	=96-	=96-	=96-	=96-	=96-	=96-	=96-	=96-	=96-
!LO:SIC:v:t=custos B 	!	!	!	!	!	!	!	!	!	!	!	!	!	!	!
0r	.	0r	.	0r	.	.	.	(2.cc\	-re-	0r	.	0r	.	0r	.
.	.	.	.	.	.	2a/)	.	.	.	.	.	.	.	.	.
.	.	.	.	.	.	.	.	4b-\)	.	.	.	.	.	.	.
.	.	.	.	.	.	1b-	-re	1b-	-re	.	.	.	.	.	.
!LO:LB:g=original	!	!	!	!	!	!	!	!	!	!	!	!	!	!	!
=97-	=97-	=97-	=97-	=97-	=97-	=97-	=97-	=97-	=97-	=97-	=97-	=97-	=97-	=97-	=97-
1.B-	pec-	1.f	pec-	1.b-	pec-	1.dd	pec-	2.dd\	pec-	1.f	pec-	1.b-	pec-	2.B-/	pec-
.	.	.	.	.	.	.	.	4dd\	-ca-	.	.	.	.	4B-/	-ca-
.	.	.	.	.	.	.	.	2dd\	-to-	.	.	.	.	1B-	-to-
2B-/	-ca-	2f\	-ca-	2f/	-ca-	2dd\	-ca-	2ff\	-rum	2f\	-ca-	2b-\	-ca-	.	.
=98-	=98-	=98-	=98-	=98-	=98-	=98-	=98-	=98-	=98-	=98-	=98-	=98-	=98-	=98-	=98-
2.F/	-to-	0f	-to-	1a	-to-	1.cc	-to-	1.ff	Mi-	1.f	-to-	4a\	-to-	1f	-rum
!	!	!	!	!	!	!	!	!	!	!	!	!LO:SIC:v:t=custos cc	!	!	!
.	.	.	.	.	.	.	.	.	.	.	.	4b-\	.	.	.
!	!	!	!	!	!	!	!	!	!	!	!	!LO:LB:g=original	!	!	!
.	.	.	.	.	.	.	.	.	.	.	.	1cc\	.	.	.
4G/	-rum	.	.	.	.	.	.	.	.	.	.	.	.	.	.
!	!	!	!	!LO:SIC:v:t=custos a	!	!	!	!	!	!	!	!	!	!	!
1.A	Mi-	.	.	1a	-rum	.	.	.	.	.	.	.	.	1.c	mi-
.	.	.	.	.	.	2cc\	-rum	2cc\	-se-	2g\	-rum	2cc,<\	-rum	.	.
!	!	!	!	!LO:LB:g=original	!	!	!	!	!	!	!	!	!	!	!
=99-	=99-	=99-	=99-	=99-	=99-	=99-	=99-	=99-	=99-	=99-	=99-	=99-	=99-	=99-	=99-
.	.	2f,<\	-rum	2a\	Mi-	2cc\	Mi-	2.cc\	-re-	2g\	mi-	2cc\	Mi-	.	.
2B-/	-se-	2d/	Mi-	(1g\	-se-	2g/	-se-	.	.	2f\	-se-	1b-\	-se-	2c/	-se-
.	.	.	.	.	.	.	.	4dd\	.	.	.	.	.	.	.
0c	-re-	2g\	-se-	.	.	0cc	-re-	4ee\	.	1g	.	.	.	0c	-re-
.	.	.	.	.	.	.	.	4cc\	.	.	.	.	.	.	.
.	.	2c/	-re-	2cc\)	.	.	.	1ff\	.	.	.	2a\	.	.	.
=100-	=100-	=100-	=100-	=100-	=100-	=100-	=100-	=100-	=100-	=100-	=100-	=100-	=100-	=100-	=100-
.	.	0.cl;;	-re-	1g	-re-	.	.	.	.	1g	-re-	1cc	-re-	.	.
.	.	.	.	.	.	.	.	2ee\	.	.	.	.	.	.	.
0Fl;;	-re	.	.	0al;;	-re	0ccl	-re	0ffl	-re.	0fl	-re	0al	-re.	0fl	-re
==	==	==	==	==	==	==	==	==	==	==	==	==	==	==	==
*-	*-	*-	*-	*-	*-	*-	*-	*-	*-	*-	*-	*-	*-	*-	*-
!!!system-decoration: [s1,s2,s3,s4][s5,s6,s7,s8]
!!!RDF**kern: < = below
!!!RDF**kern: l = terminal long
!!!ENC: Anastazja Marusiak
!!!END: 2021-09-29
!!!ENC: Marta Lawrence
!!!END: 2021-10-08
